X: 21605
T: Killarney Wonder, The
R: strathspey
M: 4/4
K: Amajor
|E<AAc (3BcB af|e<cdB c<AFA|E<AAc (3BcB (3agf|e<cdB c<AA2|
E<AAc (3BcB (3agf|(3efe (3dcB c<AFA|E<AAc (3BcB af|e<cdB c<AA2|
g<afa e<ace|d<BcA B<AFA|g<afa e<ac'a|b<abc' a2ab|
c'<af<a e<ac<e|d<BcA B<AFA|E<AAc (3BcB af|e<cdB c<AA2|

